@extra/phlat-icons/symbolic-24/system-suspend.svg

<?xml version="1.0" encoding="UTF-8" standalone="no"?>
<svg
   xmlns:dc="http://purl.org/dc/elements/1.1/"
   xmlns:cc="http://creativecommons.org/ns#"
   xmlns:rdf="http://www.w3.org/1999/02/22-rdf-syntax-ns#"
   xmlns:svg="http://www.w3.org/2000/svg"
   xmlns="http://www.w3.org/2000/svg"
   id="svg7384"
   version="1.1"
	 viewBox="-4 -4 24 24"

   height="16.02426"
   width="16">
  <metadata
     id="metadata90">
    <rdf:RDF>
      <cc:Work
         rdf:about="">
        <dc:format>image/svg+xml</dc:format>
        <dc:type
           rdf:resource="http://purl.org/dc/dcmitype/StillImage" />
        <dc:title>Gnome Symbolic Icon Theme</dc:title>
      </cc:Work>
    </rdf:RDF>
  </metadata>
  <title
     id="title9167">Gnome Symbolic Icon Theme</title>
  <defs
     id="defs7386" />
  <g
     transform="translate(-100,-685.97574)"
     id="layer9"
     style="display:inline" />
  <g
     transform="translate(-100,-685.97574)"
     id="layer10" />
  <g
     transform="translate(-100,-685.97574)"
     id="layer11" />
  <path
     style="color:#000000;font-style:normal;font-variant:normal;font-weight:normal;font-stretch:normal;font-size:medium;line-height:normal;font-family:Sans;-inkscape-font-specification:Sans;text-indent:0;text-align:start;text-decoration:none;text-decoration-line:none;letter-spacing:normal;word-spacing:normal;text-transform:none;writing-mode:lr-tb;direction:ltr;baseline-shift:baseline;text-anchor:start;display:inline;overflow:visible;visibility:visible;fill:#f1f2f2;fill-opacity:1;stroke:none;stroke-width:2.333606;marker:none;enable-background:accumulate"
     id="path3869-2"
     d="M 4.84002,1.83676 A 0.99998337,1.0002168 0 0 0 4.49189,1.97069 C 3.43846,2.58034 2.56044,3.43667 1.94784,4.48855 0.00829,7.81891 1.13552,12.13783 4.46511,14.07783 7.7947,16.01784 12.1126,14.89033 14.05216,11.55997 15.99171,8.22962 14.86448,3.9107 11.53489,1.97069 a 1.0081498,1.0083851 0 1 0 -1.01762,1.74107 c 2.39572,1.39588 3.18978,4.43408 1.79422,6.83036 C 10.91594,12.9384 7.87846,13.73264 5.48273,12.33676 3.09729,10.94687 2.29094,7.92469 3.66173,5.53319 l 0.0268,-0.0268 C 4.12612,4.75501 4.75704,4.12045 5.50953,3.68497 A 0.99998337,1.0002168 0 0 0 4.84004,1.83675 Z" />
  <path
     style="color:#000000;font-style:normal;font-variant:normal;font-weight:normal;font-stretch:normal;font-size:medium;line-height:normal;font-family:Sans;-inkscape-font-specification:Sans;text-indent:0;text-align:start;text-decoration:none;text-decoration-line:none;letter-spacing:normal;word-spacing:normal;text-transform:none;writing-mode:lr-tb;direction:ltr;baseline-shift:baseline;text-anchor:start;display:inline;overflow:visible;visibility:visible;fill:#f1f2f2;fill-opacity:1;stroke:none;stroke-width:1.84656894;marker:none;enable-background:accumulate"
     id="path4710"
     d="m 7.7815398,11.003579 a 1.0001,0.85253944 0 0 1 -0.78125,-0.852454 v -4.26227 a 1.0001,0.85253944 0 1 1 2,0 v 4.26227 a 1.0001,0.85253944 0 0 1 -1.21875,0.852454 z" />
  <g
     transform="translate(-100,-685.97574)"
     id="layer13" />
  <g
     transform="translate(-100,-685.97574)"
     id="layer14" />
  <g
     transform="translate(-100,-685.97574)"
     id="layer15"
     style="display:inline" />
  <g
     transform="translate(-100,-685.97574)"
     id="g4953"
     style="display:inline" />
  <path
     d="M 4.84002,14.214276 A 0.99998337,1.0002168 0 0 1 4.49189,14.080346 C 3.43846,13.470696 2.56044,12.614366 1.94784,11.562486 0.00829,8.2321251 1.13552,3.9132051 4.46511,1.9732051 c 3.32959,-1.94001021 7.64749,-0.8125 9.58705,2.51786 1.93955,3.33035 0.81232,7.6492709 -2.51727,9.5892809 a 1.0081498,1.0083851 0 1 1 -1.01762,-1.74107 c 2.39572,-1.39588 3.18978,-4.4340809 1.79422,-6.8303609 -1.39555,-2.39628 -4.43303,-3.19052 -6.82876,-1.79464 -2.38544,1.38989 -3.19179,4.41207 -1.821,6.8035709 l 0.0268,0.0268 c 0.43759,0.75138 1.06851,1.38594 1.821,1.82142 a 0.99998337,1.0002168 0 0 1 -0.66949,1.84822 z"
     id="path4495"
     style="color:#000000;font-style:normal;font-variant:normal;font-weight:normal;font-stretch:normal;font-size:medium;line-height:normal;font-family:Sans;-inkscape-font-specification:Sans;text-indent:0;text-align:start;text-decoration:none;text-decoration-line:none;letter-spacing:normal;word-spacing:normal;text-transform:none;writing-mode:lr-tb;direction:ltr;baseline-shift:baseline;text-anchor:start;display:inline;overflow:visible;visibility:visible;fill:#f1f2f2;fill-opacity:1;stroke:none;stroke-width:2.333606;marker:none;enable-background:accumulate" />
</svg>

<svg xmlns="http://www.w3.org/2000/svg" viewBox="0 0 16 16">
    <path style="line-height:normal;-inkscape-font-specification:Sans;text-indent:0;text-align:start;text-decoration-line:none;text-transform:none;marker:none" d="M4.84 1.837a1 1 0 0 0-.348.134 6.956 6.956 0 0 0-2.544 2.518c-1.94 3.33-.812 7.649 2.517 9.589 3.33 1.94 7.648.812 9.587-2.518 1.94-3.33.812-7.65-2.517-9.59a1.008 1.008 0 1 0-1.018 1.742 4.975 4.975 0 0 1 1.794 6.83 4.973 4.973 0 0 1-6.828 1.795 4.982 4.982 0 0 1-1.821-6.804l.027-.027a5.041 5.041 0 0 1 1.82-1.821 1 1 0 0 0-.669-1.848z" color="#000" font-weight="400" font-family="Sans" overflow="visible" fill="#f1f2f2"/>
    <path style="line-height:normal;-inkscape-font-specification:Sans;text-indent:0;text-align:start;text-decoration-line:none;text-transform:none;marker:none" d="M7.782 11.004A1 .853 0 0 1 7 10.15V5.89a1 .853 0 1 1 2 0v4.262a1 .853 0 0 1-1.218.853z" color="#000" font-weight="400" font-family="Sans" overflow="visible" fill="#f1f2f2"/>
    <path d="M4.84 14.214a1 1 0 0 1-.348-.134 6.956 6.956 0 0 1-2.544-2.518c-1.94-3.33-.812-7.649 2.517-9.589 3.33-1.94 7.648-.812 9.587 2.518 1.94 3.33.812 7.65-2.517 9.59a1.008 1.008 0 1 1-1.018-1.742 4.975 4.975 0 0 0 1.794-6.83 4.973 4.973 0 0 0-6.828-1.795 4.982 4.982 0 0 0-1.821 6.804l.027.027a5.041 5.041 0 0 0 1.82 1.821 1 1 0 0 1-.669 1.848z" style="line-height:normal;-inkscape-font-specification:Sans;text-indent:0;text-align:start;text-decoration-line:none;text-transform:none;marker:none" color="#000" font-weight="400" font-family="Sans" overflow="visible" fill="#f1f2f2"/>
</svg>
